(  )
(PN=   REV. =  ) 
(CYCLE TIME = 0:00) 
(DATE POSTED - 3/17/2023 )

(WCS = G)

(STOCK - 1  6061-T6)
(STICKOUT LENGTH= ???)

(TOOL LIST)
(T05 = F 2.5mm)
(T08 = fraise 6mm 4 dents pvc)
 
G07
G00 G18 G21 G40 G54 G80 G97 G99
G30
M01

N5 ( Foret1 )
T0565535 (F 2.5mm)
G00 S10000 M03
G00 G54
G00 X-11. Z30. M08
G01 G00
G01 G00 X-25.352 Z47.324
G01 G00 X-60. Z54.5
G01 G00 X-94.648 Z47.324
G01 G00 X-109. Z30.
G01 G00 X-94.648 Z12.676
G01 G00 X-60. Z5.5
G01 X-25.352 Z12.676
G00 Z-12.676 M09
G30
M01

N8 ( Fraisage d'ébauche1 )
T0865535 (fraise 6mm 4 dents pvc)
G00 S10000 M03
G00 G54
G00 X-11. Z30. M08
G01 G00
G01 G00 Z31.2
G03 X-8.6 Z30. R1.2
G00
G03 X-11. Z28.8 R1.2
G00
G03 X-13.4 Z30. R1.2
G00
G03 X-11. Z31.2 R1.2
G00
G03 X-8.6 Z30. R1.2
G00
G03 X-11. Z28.8 R1.2
G00
G03 X-13.4 Z30. R1.2
G00
G03 X-11. Z31.2 R1.2
G00
G01 Z30.
G00
G01 G00
G01 G00 Z31.2
G03 X-8.6 Z30. R1.2
G00
G03 X-11. Z28.8 R1.2
G00
G03 X-13.4 Z30. R1.2
G00
G03 X-11. Z31.2 R1.2
G00
G03 X-8.6 Z30. R1.2
G00
G03 X-11. Z28.8 R1.2
G00
G03 X-13.4 Z30. R1.2
G00
G03 X-11. Z31.2 R1.2
G00
G01 Z30.
G00
G01 G00
G01 G00 Z31.2
G03 X-8.6 Z30. R1.2
G00
G03 X-11. Z28.8 R1.2
G00
G03 X-13.4 Z30. R1.2
G00
G03 X-11. Z31.2 R1.2
G00
G03 X-8.6 Z30. R1.2
G00
G03 X-11. Z28.8 R1.2
G00
G03 X-13.4 Z30. R1.2
G00
G03 X-11. Z31.2 R1.2
G00
G01 Z30.
G00
G01 G00
G01 G00 Z31.2
G03 X-8.6 Z30. R1.2
G00
G03 X-11. Z28.8 R1.2
G00
G03 X-13.4 Z30. R1.2
G00
G03 X-11. Z31.2 R1.2
G00
G03 X-8.6 Z30. R1.2
G00
G03 X-11. Z28.8 R1.2
G00
G03 X-13.4 Z30. R1.2
G00
G03 X-11. Z31.2 R1.2
G00
G01 Z30.
G00
X-25.352 Z47.324
G01 G00
G01 G00 Z48.524
G03 X-22.952 Z47.324 R1.2
G00
G03 X-25.352 Z46.124 R1.2
G00
G03 X-27.752 Z47.324 R1.2
G00
G03 X-25.352 Z48.524 R1.2
G00
G03 X-22.952 Z47.324 R1.2
G00
G03 X-25.352 Z46.124 R1.2
G00
G03 X-27.752 Z47.324 R1.2
G00
G03 X-25.352 Z48.524 R1.2
G00
G01 Z47.324
G00
G01 G00
G01 G00 Z48.524
G03 X-22.952 Z47.324 R1.2
G00
G03 X-25.352 Z46.124 R1.2
G00
G03 X-27.752 Z47.324 R1.2
G00
G03 X-25.352 Z48.524 R1.2
G00
G03 X-22.952 Z47.324 R1.2
G00
G03 X-25.352 Z46.124 R1.2
G00
G03 X-27.752 Z47.324 R1.2
G00
G03 X-25.352 Z48.524 R1.2
G00
G01 Z47.324
G00
G01 G00
G01 G00 Z48.524
G03 X-22.952 Z47.324 R1.2
G00
G03 X-25.352 Z46.124 R1.2
G00
G03 X-27.752 Z47.324 R1.2
G00
G03 X-25.352 Z48.524 R1.2
G00
G03 X-22.952 Z47.324 R1.2
G00
G03 X-25.352 Z46.124 R1.2
G00
G03 X-27.752 Z47.324 R1.2
G00
G03 X-25.352 Z48.524 R1.2
G00
G01 Z47.324
G00
G01 G00
G01 G00 Z48.524
G03 X-22.952 Z47.324 R1.2
G00
G03 X-25.352 Z46.124 R1.2
G00
G03 X-27.752 Z47.324 R1.2
G00
G03 X-25.352 Z48.524 R1.2
G00
G03 X-22.952 Z47.324 R1.2
G00
G03 X-25.352 Z46.124 R1.2
G00
G03 X-27.752 Z47.324 R1.2
G00
G03 X-25.352 Z48.524 R1.2
G00
G01 Z47.324
G00
X-60. Z54.5
G01 G00
G01 G00 Z55.7
G03 X-57.6 Z54.5 R1.2
G00
G03 X-60. Z53.3 R1.2
G00
G03 X-62.4 Z54.5 R1.2
G00
G03 X-60. Z55.7 R1.2
G00
G03 X-57.6 Z54.5 R1.2
G00
G03 X-60. Z53.3 R1.2
G00
G03 X-62.4 Z54.5 R1.2
G00
G03 X-60. Z55.7 R1.2
G00
G01 Z54.5
G00
G01 G00
G01 G00 Z55.7
G03 X-57.6 Z54.5 R1.2
G00
G03 X-60. Z53.3 R1.2
G00
G03 X-62.4 Z54.5 R1.2
G00
G03 X-60. Z55.7 R1.2
G00
G03 X-57.6 Z54.5 R1.2
G00
G03 X-60. Z53.3 R1.2
G00
G03 X-62.4 Z54.5 R1.2
G00
G03 X-60. Z55.7 R1.2
G00
G01 Z54.5
G00
G01 G00
G01 G00 Z55.7
G03 X-57.6 Z54.5 R1.2
G00
G03 X-60. Z53.3 R1.2
G00
G03 X-62.4 Z54.5 R1.2
G00
G03 X-60. Z55.7 R1.2
G00
G03 X-57.6 Z54.5 R1.2
G00
G03 X-60. Z53.3 R1.2
G00
G03 X-62.4 Z54.5 R1.2
G00
G03 X-60. Z55.7 R1.2
G00
G01 Z54.5
G00
G01 G00
G01 G00 Z55.7
G03 X-57.6 Z54.5 R1.2
G00
G03 X-60. Z53.3 R1.2
G00
G03 X-62.4 Z54.5 R1.2
G00
G03 X-60. Z55.7 R1.2
G00
G03 X-57.6 Z54.5 R1.2
G00
G03 X-60. Z53.3 R1.2
G00
G03 X-62.4 Z54.5 R1.2
G00
G03 X-60. Z55.7 R1.2
G00
G01 Z54.5
G00
X-94.648 Z47.324
G01 G00
G01 G00 Z48.524
G03 X-92.248 Z47.324 R1.2
G00
G03 X-94.648 Z46.124 R1.2
G00
G03 X-97.048 Z47.324 R1.2
G00
G03 X-94.648 Z48.524 R1.2
G00
G03 X-92.248 Z47.324 R1.2
G00
G03 X-94.648 Z46.124 R1.2
G00
G03 X-97.048 Z47.324 R1.2
G00
G03 X-94.648 Z48.524 R1.2
G00
G01 Z47.324
G00
G01 G00
G01 G00 Z48.524
G03 X-92.248 Z47.324 R1.2
G00
G03 X-94.648 Z46.124 R1.2
G00
G03 X-97.048 Z47.324 R1.2
G00
G03 X-94.648 Z48.524 R1.2
G00
G03 X-92.248 Z47.324 R1.2
G00
G03 X-94.648 Z46.124 R1.2
G00
G03 X-97.048 Z47.324 R1.2
G00
G03 X-94.648 Z48.524 R1.2
G00
G01 Z47.324
G00
G01 G00
G01 G00 Z48.524
G03 X-92.248 Z47.324 R1.2
G00
G03 X-94.648 Z46.124 R1.2
G00
G03 X-97.048 Z47.324 R1.2
G00
G03 X-94.648 Z48.524 R1.2
G00
G03 X-92.248 Z47.324 R1.2
G00
G03 X-94.648 Z46.124 R1.2
G00
G03 X-97.048 Z47.324 R1.2
G00
G03 X-94.648 Z48.524 R1.2
G00
G01 Z47.324
G00
G01 G00
G01 G00 Z48.524
G03 X-92.248 Z47.324 R1.2
G00
G03 X-94.648 Z46.124 R1.2
G00
G03 X-97.048 Z47.324 R1.2
G00
G03 X-94.648 Z48.524 R1.2
G00
G03 X-92.248 Z47.324 R1.2
G00
G03 X-94.648 Z46.124 R1.2
G00
G03 X-97.048 Z47.324 R1.2
G00
G03 X-94.648 Z48.524 R1.2
G00
G01 Z47.324
G00
X-109. Z30.
G01 G00
G01 G00 Z31.2
G03 X-106.6 Z30. R1.2
G00
G03 X-109. Z28.8 R1.2
G00
G03 X-111.4 Z30. R1.2
G00
G03 X-109. Z31.2 R1.2
G00
G03 X-106.6 Z30. R1.2
G00
G03 X-109. Z28.8 R1.2
G00
G03 X-111.4 Z30. R1.2
G00
G03 X-109. Z31.2 R1.2
G00
G01 Z30.
G00
G01 G00
G01 G00 Z31.2
G03 X-106.6 Z30. R1.2
G00
G03 X-109. Z28.8 R1.2
G00
G03 X-111.4 Z30. R1.2
G00
G03 X-109. Z31.2 R1.2
G00
G03 X-106.6 Z30. R1.2
G00
G03 X-109. Z28.8 R1.2
G00
G03 X-111.4 Z30. R1.2
G00
G03 X-109. Z31.2 R1.2
G00
G01 Z30.
G00
G01 G00
G01 G00 Z31.2
G03 X-106.6 Z30. R1.2
G00
G03 X-109. Z28.8 R1.2
G00
G03 X-111.4 Z30. R1.2
G00
G03 X-109. Z31.2 R1.2
G00
G03 X-106.6 Z30. R1.2
G00
G03 X-109. Z28.8 R1.2
G00
G03 X-111.4 Z30. R1.2
G00
G03 X-109. Z31.2 R1.2
G00
G01 Z30.
G00
G01 G00
G01 G00 Z31.2
G03 X-106.6 Z30. R1.2
G00
G03 X-109. Z28.8 R1.2
G00
G03 X-111.4 Z30. R1.2
G00
G03 X-109. Z31.2 R1.2
G00
G03 X-106.6 Z30. R1.2
G00
G03 X-109. Z28.8 R1.2
G00
G03 X-111.4 Z30. R1.2
G00
G03 X-109. Z31.2 R1.2
G00
G01 Z30.
G00
X-94.648 Z12.676
G01 G00
G01 G00 Z13.876
G03 X-92.248 Z12.676 R1.2
G00
G03 X-94.648 Z11.476 R1.2
G00
G03 X-97.048 Z12.676 R1.2
G00
G03 X-94.648 Z13.876 R1.2
G00
G03 X-92.248 Z12.676 R1.2
G00
G03 X-94.648 Z11.476 R1.2
G00
G03 X-97.048 Z12.676 R1.2
G00
G03 X-94.648 Z13.876 R1.2
G00
G01 Z12.676
G00
G01 G00
G01 G00 Z13.876
G03 X-92.248 Z12.676 R1.2
G00
G03 X-94.648 Z11.476 R1.2
G00
G03 X-97.048 Z12.676 R1.2
G00
G03 X-94.648 Z13.876 R1.2
G00
G03 X-92.248 Z12.676 R1.2
G00
G03 X-94.648 Z11.476 R1.2
G00
G03 X-97.048 Z12.676 R1.2
G00
G03 X-94.648 Z13.876 R1.2
G00
G01 Z12.676
G00
G01 G00
G01 G00 Z13.876
G03 X-92.248 Z12.676 R1.2
G00
G03 X-94.648 Z11.476 R1.2
G00
G03 X-97.048 Z12.676 R1.2
G00
G03 X-94.648 Z13.876 R1.2
G00
G03 X-92.248 Z12.676 R1.2
G00
G03 X-94.648 Z11.476 R1.2
G00
G03 X-97.048 Z12.676 R1.2
G00
G03 X-94.648 Z13.876 R1.2
G00
G01 Z12.676
G00
G01 G00
G01 G00 Z13.876
G03 X-92.248 Z12.676 R1.2
G00
G03 X-94.648 Z11.476 R1.2
G00
G03 X-97.048 Z12.676 R1.2
G00
G03 X-94.648 Z13.876 R1.2
G00
G03 X-92.248 Z12.676 R1.2
G00
G03 X-94.648 Z11.476 R1.2
G00
G03 X-97.048 Z12.676 R1.2
G00
G03 X-94.648 Z13.876 R1.2
G00
G01 Z12.676
G00
X-60. Z5.5
G01 G00
G01 G00 Z6.7
G03 X-57.6 Z5.5 R1.2
G00
G03 X-60. Z4.3 R1.2
G00
G03 X-62.4 Z5.5 R1.2
G00
G03 X-60. Z6.7 R1.2
G00
G03 X-57.6 Z5.5 R1.2
G00
G03 X-60. Z4.3 R1.2
G00
G03 X-62.4 Z5.5 R1.2
G00
G03 X-60. Z6.7 R1.2
G00
G01 Z5.5
G00
G01 G00
G01 G00 Z6.7
G03 X-57.6 Z5.5 R1.2
G00
G03 X-60. Z4.3 R1.2
G00
G03 X-62.4 Z5.5 R1.2
G00
G03 X-60. Z6.7 R1.2
G00
G03 X-57.6 Z5.5 R1.2
G00
G03 X-60. Z4.3 R1.2
G00
G03 X-62.4 Z5.5 R1.2
G00
G03 X-60. Z6.7 R1.2
G00
G01 Z5.5
G00
G01 G00
G01 G00 Z6.7
G03 X-57.6 Z5.5 R1.2
G00
G03 X-60. Z4.3 R1.2
G00
G03 X-62.4 Z5.5 R1.2
G00
G03 X-60. Z6.7 R1.2
G00
G03 X-57.6 Z5.5 R1.2
G00
G03 X-60. Z4.3 R1.2
G00
G03 X-62.4 Z5.5 R1.2
G00
G03 X-60. Z6.7 R1.2
G00
G01 Z5.5
G00
G01 G00
G01 G00 Z6.7
G03 X-57.6 Z5.5 R1.2
G00
G03 X-60. Z4.3 R1.2
G00
G03 X-62.4 Z5.5 R1.2
G00
G03 X-60. Z6.7 R1.2
G00
G03 X-57.6 Z5.5 R1.2
G00
G03 X-60. Z4.3 R1.2
G00
G03 X-62.4 Z5.5 R1.2
G00
G03 X-60. Z6.7 R1.2
G00
G01 Z5.5
G00
X-25.352 Z12.676
G01 G00
G01 G00 Z13.876
G03 X-22.952 Z12.676 R1.2
G00
G03 X-25.352 Z11.476 R1.2
G00
G03 X-27.752 Z12.676 R1.2
G00
G03 X-25.352 Z13.876 R1.2
G00
G03 X-22.952 Z12.676 R1.2
G00
G03 X-25.352 Z11.476 R1.2
G00
G03 X-27.752 Z12.676 R1.2
G00
G03 X-25.352 Z13.876 R1.2
G00
G01 Z12.676
G00
G01 G00
G01 G00 Z13.876
G03 X-22.952 Z12.676 R1.2
G00
G03 X-25.352 Z11.476 R1.2
G00
G03 X-27.752 Z12.676 R1.2
G00
G03 X-25.352 Z13.876 R1.2
G00
G03 X-22.952 Z12.676 R1.2
G00
G03 X-25.352 Z11.476 R1.2
G00
G03 X-27.752 Z12.676 R1.2
G00
G03 X-25.352 Z13.876 R1.2
G00
G01 Z12.676
G00
G01 G00
G01 G00 Z13.876
G03 X-22.952 Z12.676 R1.2
G00
G03 X-25.352 Z11.476 R1.2
G00
G03 X-27.752 Z12.676 R1.2
G00
G03 X-25.352 Z13.876 R1.2
G00
G03 X-22.952 Z12.676 R1.2
G00
G03 X-25.352 Z11.476 R1.2
G00
G03 X-27.752 Z12.676 R1.2
G00
G03 X-25.352 Z13.876 R1.2
G00
G01 Z12.676
G00
G01 G00
G01 G00 Z13.876
G03 X-22.952 Z12.676 R1.2
G00
G03 X-25.352 Z11.476 R1.2
G00
G03 X-27.752 Z12.676 R1.2
G00
G03 X-25.352 Z13.876 R1.2
G00
G03 X-22.952 Z12.676 R1.2
G00
G03 X-25.352 Z11.476 R1.2
G00
G03 X-27.752 Z12.676 R1.2
G00
G03 X-25.352 Z13.876 R1.2
G00
G01 Z12.676
G00
( Fraisage d'ébauche2 )
X-60. Z30.
G01 G00 Z33.
G03 X-54. Z30. R3.
G00
G03 X-60. Z27. R3.
G00
G03 X-66. Z30. R3.
G00
G03 X-60. Z33. R3.
G00
G03 X-54. Z30. R3.
G00
G03 X-60. Z27. R3.
G00
G01 G00 Z30.
G01 G00 Z31.6
G03 X-56.8 Z30. R1.6
G00
G03 X-60. Z28.4 R1.6
G00
G03 X-63.2 Z30. R1.6
G00
G03 X-60. Z31.6 R1.6
G00
G01 G00 Z34.
G03 X-52. Z30. R4.
G00
G03 X-60. Z26. R4.
G00
G03 X-68. Z30. R4.
G00
G03 X-60. Z34. R4.
G00
G01 G00 Z36.4
G03 X-47.2 Z30. R6.4
G00
G03 X-60. Z23.6 R6.4
G00
G03 X-72.8 Z30. R6.4
G00
G03 X-60. Z36.4 R6.4
G00
G01 G00 Z38.8
G03 X-42.4 Z30. R8.8
G00
G03 X-60. Z21.2 R8.8
G00
G03 X-77.6 Z30. R8.8
G00
G03 X-60. Z38.8 R8.8
G00
G01 G00 Z41.2
G03 X-37.6 Z30. R11.2
G00
G03 X-60. Z18.8 R11.2
G00
G03 X-82.4 Z30. R11.2
G00
G03 X-60. Z41.2 R11.2
G00
G01 G00 Z43.6
G03 X-32.8 Z30. R13.6
G00
G03 X-60. Z16.4 R13.6
G00
G03 X-87.2 Z30. R13.6
G00
G03 X-60. Z43.6 R13.6
G00
G01 G00 Z46.
G03 X-28. Z30. R16.
G00
G03 X-60. Z14. R16.
G00
G03 X-92. Z30. R16.
G00
G03 X-60. Z46. R16.
G00
G03 X-28. Z30. R16.
G00
G03 X-60. Z14. R16.
G00
G03 X-92. Z30. R16.
G00
G03 X-60. Z46. R16.
G00
G01 Z30.
G00
G01 G00 Z33.
G03 X-54. Z30. R3.
G00
G03 X-60. Z27. R3.
G00
G03 X-66. Z30. R3.
G00
G03 X-60. Z33. R3.
G00
G03 X-54. Z30. R3.
G00
G03 X-59.651 Z27.005 R3.
G00
G01 G00 X-60. Z30.
G01 G00 Z31.6
G03 X-56.8 Z30. R1.6
G00
G03 X-60. Z28.4 R1.6
G00
G03 X-63.2 Z30. R1.6
G00
G03 X-60. Z31.6 R1.6
G00
G01 G00 Z34.
G03 X-52. Z30. R4.
G00
G03 X-60. Z26. R4.
G00
G03 X-68. Z30. R4.
G00
G03 X-60. Z34. R4.
G00
G01 G00 Z36.4
G03 X-47.2 Z30. R6.4
G00
G03 X-60. Z23.6 R6.4
G00
G03 X-72.8 Z30. R6.4
G00
G03 X-60. Z36.4 R6.4
G00
G01 G00 Z38.8
G03 X-42.4 Z30. R8.8
G00
G03 X-60. Z21.2 R8.8
G00
G03 X-77.6 Z30. R8.8
G00
G03 X-60. Z38.8 R8.8
G00
G01 G00 Z41.2
G03 X-37.6 Z30. R11.2
G00
G03 X-60. Z18.8 R11.2
G00
G03 X-82.4 Z30. R11.2
G00
G03 X-60. Z41.2 R11.2
G00
G01 G00 Z43.6
G03 X-32.8 Z30. R13.6
G00
G03 X-60. Z16.4 R13.6
G00
G03 X-87.2 Z30. R13.6
G00
G03 X-60. Z43.6 R13.6
G00
G01 G00 Z46.
G03 X-28. Z30. R16.
G00
G03 X-60. Z14. R16.
G00
G03 X-92. Z30. R16.
G00
G03 X-60. Z46. R16.
G00
G03 X-28. Z30. R16.
G00
G03 X-60. Z14. R16.
G00
G03 X-92. Z30. R16.
G00
G03 X-60. Z46. R16.
G00
G01 Z30.
G00
G01 G00 Z33.
G03 X-54. Z30. R3.
G00
G03 X-60. Z27. R3.
G00
G03 X-66. Z30. R3.
G00
G03 X-60. Z33. R3.
G00
G03 X-54. Z30. R3.
G00
G03 X-59.651 Z27.005 R3.
G00
G01 G00 X-60. Z30.
G01 G00 Z31.6
G03 X-56.8 Z30. R1.6
G00
G03 X-60. Z28.4 R1.6
G00
G03 X-63.2 Z30. R1.6
G00
G03 X-60. Z31.6 R1.6
G00
G01 G00 Z34.
G03 X-52. Z30. R4.
G00
G03 X-60. Z26. R4.
G00
G03 X-68. Z30. R4.
G00
G03 X-60. Z34. R4.
G00
G01 G00 Z36.4
G03 X-47.2 Z30. R6.4
G00
G03 X-60. Z23.6 R6.4
G00
G03 X-72.8 Z30. R6.4
G00
G03 X-60. Z36.4 R6.4
G00
G01 G00 Z38.8
G03 X-42.4 Z30. R8.8
G00
G03 X-60. Z21.2 R8.8
G00
G03 X-77.6 Z30. R8.8
G00
G03 X-60. Z38.8 R8.8
G00
G01 G00 Z41.2
G03 X-37.6 Z30. R11.2
G00
G03 X-60. Z18.8 R11.2
G00
G03 X-82.4 Z30. R11.2
G00
G03 X-60. Z41.2 R11.2
G00
G01 G00 Z43.6
G03 X-32.8 Z30. R13.6
G00
G03 X-60. Z16.4 R13.6
G00
G03 X-87.2 Z30. R13.6
G00
G03 X-60. Z43.6 R13.6
G00
G01 G00 Z46.
G03 X-28. Z30. R16.
G00
G03 X-60. Z14. R16.
G00
G03 X-92. Z30. R16.
G00
G03 X-60. Z46. R16.
G00
G03 X-28. Z30. R16.
G00
G03 X-60. Z14. R16.
G00
G03 X-92. Z30. R16.
G00
G03 X-60. Z46. R16.
G00
G01 Z30.
G00
G01 G00 Z33.
G03 X-54. Z30. R3.
G00
G03 X-60. Z27. R3.
G00
G03 X-66. Z30. R3.
G00
G03 X-60. Z33. R3.
G00
G03 X-54. Z30. R3.
G00
G03 X-59.651 Z27.005 R3.
G00
G01 G00 X-60. Z30.
G01 G00 Z31.6
G03 X-56.8 Z30. R1.6
G00
G03 X-60. Z28.4 R1.6
G00
G03 X-63.2 Z30. R1.6
G00
G03 X-60. Z31.6 R1.6
G00
G01 G00 Z34.
G03 X-52. Z30. R4.
G00
G03 X-60. Z26. R4.
G00
G03 X-68. Z30. R4.
G00
G03 X-60. Z34. R4.
G00
G01 G00 Z36.4
G03 X-47.2 Z30. R6.4
G00
G03 X-60. Z23.6 R6.4
G00
G03 X-72.8 Z30. R6.4
G00
G03 X-60. Z36.4 R6.4
G00
G01 G00 Z38.8
G03 X-42.4 Z30. R8.8
G00
G03 X-60. Z21.2 R8.8
G00
G03 X-77.6 Z30. R8.8
G00
G03 X-60. Z38.8 R8.8
G00
G01 G00 Z41.2
G03 X-37.6 Z30. R11.2
G00
G03 X-60. Z18.8 R11.2
G00
G03 X-82.4 Z30. R11.2
G00
G03 X-60. Z41.2 R11.2
G00
G01 G00 Z43.6
G03 X-32.8 Z30. R13.6
G00
G03 X-60. Z16.4 R13.6
G00
G03 X-87.2 Z30. R13.6
G00
G03 X-60. Z43.6 R13.6
G00
G01 G00 Z46.
G03 X-28. Z30. R16.
G00
G03 X-60. Z14. R16.
G00
G03 X-92. Z30. R16.
G00
G03 X-60. Z46. R16.
G00
G03 X-28. Z30. R16.
G00
G03 X-60. Z14. R16.
G00
G03 X-92. Z30. R16.
G00
G03 X-60. Z46. R16.
G00
G01 Z30.
G00
G01 G00 Z33.
G03 X-54. Z30. R3.
G00
G03 X-60. Z27. R3.
G00
G03 X-66. Z30. R3.
G00
G03 X-60. Z33. R3.
G00
G03 X-54. Z30. R3.
G00
G03 X-59.651 Z27.005 R3.
G00
G01 G00 X-60. Z30.
G01 G00 Z31.6
G03 X-56.8 Z30. R1.6
G00
G03 X-60. Z28.4 R1.6
G00
G03 X-63.2 Z30. R1.6
G00
G03 X-60. Z31.6 R1.6
G00
G01 G00 Z34.
G03 X-52. Z30. R4.
G00
G03 X-60. Z26. R4.
G00
G03 X-68. Z30. R4.
G00
G03 X-60. Z34. R4.
G00
G01 G00 Z36.4
G03 X-47.2 Z30. R6.4
G00
G03 X-60. Z23.6 R6.4
G00
G03 X-72.8 Z30. R6.4
G00
G03 X-60. Z36.4 R6.4
G00
G01 G00 Z38.8
G03 X-42.4 Z30. R8.8
G00
G03 X-60. Z21.2 R8.8
G00
G03 X-77.6 Z30. R8.8
G00
G03 X-60. Z38.8 R8.8
G00
G01 G00 Z41.2
G03 X-37.6 Z30. R11.2
G00
G03 X-60. Z18.8 R11.2
G00
G03 X-82.4 Z30. R11.2
G00
G03 X-60. Z41.2 R11.2
G00
G01 G00 Z43.6
G03 X-32.8 Z30. R13.6
G00
G03 X-60. Z16.4 R13.6
G00
G03 X-87.2 Z30. R13.6
G00
G03 X-60. Z43.6 R13.6
G00
G01 G00 Z46.
G03 X-28. Z30. R16.
G00
G03 X-60. Z14. R16.
G00
G03 X-92. Z30. R16.
G00
G03 X-60. Z46. R16.
G00
G03 X-28. Z30. R16.
G00
G03 X-60. Z14. R16.
G00
G03 X-92. Z30. R16.
G00
G03 X-60. Z46. R16.
G00
G01 Z30.
G00
G01 G00 Z33.
G03 X-54. Z30. R3.
G00
G03 X-60. Z27. R3.
G00
G03 X-66. Z30. R3.
G00
G03 X-60. Z33. R3.
G00
G03 X-54. Z30. R3.
G00
G03 X-59.651 Z27.005 R3.
G00
G01 G00 X-60. Z30.
G01 G00 Z31.6
G03 X-56.8 Z30. R1.6
G00
G03 X-60. Z28.4 R1.6
G00
G03 X-63.2 Z30. R1.6
G00
G03 X-60. Z31.6 R1.6
G00
G01 G00 Z34.
G03 X-52. Z30. R4.
G00
G03 X-60. Z26. R4.
G00
G03 X-68. Z30. R4.
G00
G03 X-60. Z34. R4.
G00
G01 G00 Z36.4
G03 X-47.2 Z30. R6.4
G00
G03 X-60. Z23.6 R6.4
G00
G03 X-72.8 Z30. R6.4
G00
G03 X-60. Z36.4 R6.4
G00
G01 G00 Z38.8
G03 X-42.4 Z30. R8.8
G00
G03 X-60. Z21.2 R8.8
G00
G03 X-77.6 Z30. R8.8
G00
G03 X-60. Z38.8 R8.8
G00
G01 G00 Z41.2
G03 X-37.6 Z30. R11.2
G00
G03 X-60. Z18.8 R11.2
G00
G03 X-82.4 Z30. R11.2
G00
G03 X-60. Z41.2 R11.2
G00
G01 G00 Z43.6
G03 X-32.8 Z30. R13.6
G00
G03 X-60. Z16.4 R13.6
G00
G03 X-87.2 Z30. R13.6
G00
G03 X-60. Z43.6 R13.6
G00
G01 G00 Z46.
G03 X-28. Z30. R16.
G00
G03 X-60. Z14. R16.
G00
G03 X-92. Z30. R16.
G00
G03 X-60. Z46. R16.
G00
G03 X-28. Z30. R16.
G00
G03 X-60. Z14. R16.
G00
G03 X-92. Z30. R16.
G00
G03 X-60. Z46. R16.
G00
G01 Z30.
G00
G01 G00 Z33.
G03 X-54. Z30. R3.
G00
G03 X-60. Z27. R3.
G00
G03 X-66. Z30. R3.
G00
G03 X-60. Z33. R3.
G00
G03 X-54. Z30. R3.
G00
G03 X-59.651 Z27.005 R3.
G00
G01 G00 X-60. Z30.
G01 G00 Z31.6
G03 X-56.8 Z30. R1.6
G00
G03 X-60. Z28.4 R1.6
G00
G03 X-63.2 Z30. R1.6
G00
G03 X-60. Z31.6 R1.6
G00
G01 G00 Z34.
G03 X-52. Z30. R4.
G00
G03 X-60. Z26. R4.
G00
G03 X-68. Z30. R4.
G00
G03 X-60. Z34. R4.
G00
G01 G00 Z36.4
G03 X-47.2 Z30. R6.4
G00
G03 X-60. Z23.6 R6.4
G00
G03 X-72.8 Z30. R6.4
G00
G03 X-60. Z36.4 R6.4
G00
G01 G00 Z38.8
G03 X-42.4 Z30. R8.8
G00
G03 X-60. Z21.2 R8.8
G00
G03 X-77.6 Z30. R8.8
G00
G03 X-60. Z38.8 R8.8
G00
G01 G00 Z41.2
G03 X-37.6 Z30. R11.2
G00
G03 X-60. Z18.8 R11.2
G00
G03 X-82.4 Z30. R11.2
G00
G03 X-60. Z41.2 R11.2
G00
G01 G00 Z43.6
G03 X-32.8 Z30. R13.6
G00
G03 X-60. Z16.4 R13.6
G00
G03 X-87.2 Z30. R13.6
G00
G03 X-60. Z43.6 R13.6
G00
G01 G00 Z46.
G03 X-28. Z30. R16.
G00
G03 X-60. Z14. R16.
G00
G03 X-92. Z30. R16.
G00
G03 X-60. Z46. R16.
G00
G03 X-28. Z30. R16.
G00
G03 X-60. Z14. R16.
G00
G03 X-92. Z30. R16.
G00
G03 X-60. Z46. R16.
G00
G01 Z30.
G00
G01 G00 Z33.
G03 X-54. Z30. R3.
G00
G03 X-60. Z27. R3.
G00
G03 X-66. Z30. R3.
G00
G03 X-60. Z33. R3.
G00
G03 X-54. Z30. R3.
G00
G03 X-59.651 Z27.005 R3.
G00
G01 G00 X-60. Z30.
G01 G00 Z31.6
G03 X-56.8 Z30. R1.6
G00
G03 X-60. Z28.4 R1.6
G00
G03 X-63.2 Z30. R1.6
G00
G03 X-60. Z31.6 R1.6
G00
G01 G00 Z34.
G03 X-52. Z30. R4.
G00
G03 X-60. Z26. R4.
G00
G03 X-68. Z30. R4.
G00
G03 X-60. Z34. R4.
G00
G01 G00 Z36.4
G03 X-47.2 Z30. R6.4
G00
G03 X-60. Z23.6 R6.4
G00
G03 X-72.8 Z30. R6.4
G00
G03 X-60. Z36.4 R6.4
G00
G01 G00 Z38.8
G03 X-42.4 Z30. R8.8
G00
G03 X-60. Z21.2 R8.8
G00
G03 X-77.6 Z30. R8.8
G00
G03 X-60. Z38.8 R8.8
G00
G01 G00 Z41.2
G03 X-37.6 Z30. R11.2
G00
G03 X-60. Z18.8 R11.2
G00
G03 X-82.4 Z30. R11.2
G00
G03 X-60. Z41.2 R11.2
G00
G01 G00 Z43.6
G03 X-32.8 Z30. R13.6
G00
G03 X-60. Z16.4 R13.6
G00
G03 X-87.2 Z30. R13.6
G00
G03 X-60. Z43.6 R13.6
G00
G01 G00 Z46.
G03 X-28. Z30. R16.
G00
G03 X-60. Z14. R16.
G00
G03 X-92. Z30. R16.
G00
G03 X-60. Z46. R16.
G00
G03 X-28. Z30. R16.
G00
G03 X-60. Z14. R16.
G00
G03 X-92. Z30. R16.
G00
G03 X-60. Z46. R16.
G00
G01 Z30.
G00
G01 G00 Z33.
G03 X-54. Z30. R3.
G00
G03 X-60. Z27. R3.
G00
G03 X-66. Z30. R3.
G00
G03 X-60. Z33. R3.
G00
G03 X-54. Z30. R3.
G00
G03 X-59.651 Z27.005 R3.
G00
G01 G00 X-60. Z30.
G01 G00 Z31.6
G03 X-56.8 Z30. R1.6
G00
G03 X-60. Z28.4 R1.6
G00
G03 X-63.2 Z30. R1.6
G00
G03 X-60. Z31.6 R1.6
G00
G01 G00 Z34.
G03 X-52. Z30. R4.
G00
G03 X-60. Z26. R4.
G00
G03 X-68. Z30. R4.
G00
G03 X-60. Z34. R4.
G00
G01 G00 Z36.4
G03 X-47.2 Z30. R6.4
G00
G03 X-60. Z23.6 R6.4
G00
G03 X-72.8 Z30. R6.4
G00
G03 X-60. Z36.4 R6.4
G00
G01 G00 Z38.8
G03 X-42.4 Z30. R8.8
G00
G03 X-60. Z21.2 R8.8
G00
G03 X-77.6 Z30. R8.8
G00
G03 X-60. Z38.8 R8.8
G00
G01 G00 Z41.2
G03 X-37.6 Z30. R11.2
G00
G03 X-60. Z18.8 R11.2
G00
G03 X-82.4 Z30. R11.2
G00
G03 X-60. Z41.2 R11.2
G00
G01 G00 Z43.6
G03 X-32.8 Z30. R13.6
G00
G03 X-60. Z16.4 R13.6
G00
G03 X-87.2 Z30. R13.6
G00
G03 X-60. Z43.6 R13.6
G00
G01 G00 Z46.
G03 X-28. Z30. R16.
G00
G03 X-60. Z14. R16.
G00
G03 X-92. Z30. R16.
G00
G03 X-60. Z46. R16.
G00
G03 X-28. Z30. R16.
G00
G03 X-60. Z14. R16.
G00
G03 X-92. Z30. R16.
G00
G03 X-60. Z46. R16.
G00
G01 Z30.
G00
G01 G00 Z33.
G03 X-54. Z30. R3.
G00
G03 X-60. Z27. R3.
G00
G03 X-66. Z30. R3.
G00
G03 X-60. Z33. R3.
G00
G03 X-54. Z30. R3.
G00
G03 X-59.651 Z27.005 R3.
G00
G01 G00 X-60. Z30.
G01 G00 Z31.6
G03 X-56.8 Z30. R1.6
G00
G03 X-60. Z28.4 R1.6
G00
G03 X-63.2 Z30. R1.6
G00
G03 X-60. Z31.6 R1.6
G00
G01 G00 Z34.
G03 X-52. Z30. R4.
G00
G03 X-60. Z26. R4.
G00
G03 X-68. Z30. R4.
G00
G03 X-60. Z34. R4.
G00
G01 G00 Z36.4
G03 X-47.2 Z30. R6.4
G00
G03 X-60. Z23.6 R6.4
G00
G03 X-72.8 Z30. R6.4
G00
G03 X-60. Z36.4 R6.4
G00
G01 G00 Z38.8
G03 X-42.4 Z30. R8.8
G00
G03 X-60. Z21.2 R8.8
G00
G03 X-77.6 Z30. R8.8
G00
G03 X-60. Z38.8 R8.8
G00
G01 G00 Z41.2
G03 X-37.6 Z30. R11.2
G00
G03 X-60. Z18.8 R11.2
G00
G03 X-82.4 Z30. R11.2
G00
G03 X-60. Z41.2 R11.2
G00
G01 G00 Z43.6
G03 X-32.8 Z30. R13.6
G00
G03 X-60. Z16.4 R13.6
G00
G03 X-87.2 Z30. R13.6
G00
G03 X-60. Z43.6 R13.6
G00
G01 G00 Z46.
G03 X-28. Z30. R16.
G00
G03 X-60. Z14. R16.
G00
G03 X-92. Z30. R16.
G00
G03 X-60. Z46. R16.
G00
G03 X-28. Z30. R16.
G00
G03 X-60. Z14. R16.
G00
G03 X-92. Z30. R16.
G00
G03 X-60. Z46. R16.
G00
G01 Z30.
G00
G01 G00 Z33.
G03 X-54. Z30. R3.
G00
G03 X-60. Z27. R3.
G00
G03 X-66. Z30. R3.
G00
G03 X-63. Z32.598 R3.
G00
G01 G00 X-60. Z30.
G01 G00 Z31.6
G03 X-56.8 Z30. R1.6
G00
G03 X-60. Z28.4 R1.6
G00
G03 X-63.2 Z30. R1.6
G00
G03 X-60. Z31.6 R1.6
G00
G01 G00 Z34.
G03 X-52. Z30. R4.
G00
G03 X-60. Z26. R4.
G00
G03 X-68. Z30. R4.
G00
G03 X-60. Z34. R4.
G00
G01 G00 Z36.4
G03 X-47.2 Z30. R6.4
G00
G03 X-60. Z23.6 R6.4
G00
G03 X-72.8 Z30. R6.4
G00
G03 X-60. Z36.4 R6.4
G00
G01 G00 Z38.8
G03 X-42.4 Z30. R8.8
G00
G03 X-60. Z21.2 R8.8
G00
G03 X-77.6 Z30. R8.8
G00
G03 X-60. Z38.8 R8.8
G00
G01 G00 Z41.2
G03 X-37.6 Z30. R11.2
G00
G03 X-60. Z18.8 R11.2
G00
G03 X-82.4 Z30. R11.2
G00
G03 X-60. Z41.2 R11.2
G00
G01 G00 Z43.6
G03 X-32.8 Z30. R13.6
G00
G03 X-60. Z16.4 R13.6
G00
G03 X-87.2 Z30. R13.6
G00
G03 X-60. Z43.6 R13.6
G00
G01 G00 Z46.
G03 X-28. Z30. R16.
G00
G03 X-60. Z14. R16.
G00
G03 X-92. Z30. R16.
G00
G03 X-60. Z46. R16.
G00
G03 X-28. Z30. R16.
G00
G03 X-60. Z14. R16.
G00
G03 X-92. Z30. R16.
G00
G03 X-60. Z46. R16.
G00
G01 Z30.
G00
( Fraisage de contour1 )
X10.656 Z26.727
G01 G00
G01 G00 X6.325 Z28.973
G03 X5.989 Z29.389 R.6
G00
G03 Z29.4 R.6
G00
G02 X6. Z30. R33.
G00
G02 X-60. Z63. R33.
G00
G02 X-126. Z30. R33.
G00
G02 X-60. Z-3. R33.
G00
G02 X6. Z30. R33.
G00
G02 X5.989 Z30.6 R33.
G00
G03 Z30.611 R.6
G00
G03 X6.325 Z31.027 R.6
G00
G01 X10.656 Z33.273
G00
Z26.727
G01 G00
G01 G00 X6.325 Z28.973
G03 X5.989 Z29.389 R.6
G00
G03 Z29.4 R.6
G00
G02 X6. Z30. R33.
G00
G02 X-60. Z63. R33.
G00
G02 X-126. Z30. R33.
G00
G02 X-60. Z-3. R33.
G00
G02 X6. Z30. R33.
G00
G02 X5.989 Z30.6 R33.
G00
G03 Z30.611 R.6
G00
G03 X6.325 Z31.027 R.6
G00
G01 X10.656 Z33.273
G00
Z26.727
G01 G00
G01 G00 X6.325 Z28.973
G03 X5.989 Z29.389 R.6
G00
G03 Z29.4 R.6
G00
G02 X6. Z30. R33.
G00
G02 X-60. Z63. R33.
G00
G02 X-126. Z30. R33.
G00
G02 X-60. Z-3. R33.
G00
G02 X6. Z30. R33.
G00
G02 X5.989 Z30.6 R33.
G00
G03 Z30.611 R.6
G00
G03 X6.325 Z31.027 R.6
G00
G01 X10.656 Z33.273
G00
Z26.727
G01 G00
G01 G00 X6.325 Z28.973
G03 X5.989 Z29.389 R.6
G00
G03 Z29.4 R.6
G00
G02 X6. Z30. R33.
G00
G02 X-60. Z63. R33.
G00
G02 X-126. Z30. R33.
G00
G02 X-60. Z-3. R33.
G00
G02 X6. Z30. R33.
G00
G02 X5.989 Z30.6 R33.
G00
G03 Z30.611 R.6
G00
G03 X6.325 Z31.027 R.6
G00
G01 X10.656 Z33.273
G00
Z26.727
G01 G00
G01 G00 X6.325 Z28.973
G03 X5.989 Z29.389 R.6
G00
G03 Z29.4 R.6
G00
G02 X6. Z30. R33.
G00
G02 X-60. Z63. R33.
G00
G02 X-126. Z30. R33.
G00
G02 X-60. Z-3. R33.
G00
G02 X6. Z30. R33.
G00
G02 X5.989 Z30.6 R33.
G00
G03 Z30.611 R.6
G00
G03 X6.325 Z31.027 R.6
G00
G01 X10.656 Z33.273
G00
Z26.727
G01 G00
G01 G00 X6.325 Z28.973
G03 X5.989 Z29.389 R.6
G00
G03 Z29.4 R.6
G00
G02 X6. Z30. R33.
G00
G02 X-60. Z63. R33.
G00
G02 X-126. Z30. R33.
G00
G02 X-60. Z-3. R33.
G00
G02 X6. Z30. R33.
G00
G02 X5.989 Z30.6 R33.
G00
G03 Z30.611 R.6
G00
G03 X6.325 Z31.027 R.6
G00
G01 X10.656 Z33.273
G00
Z26.727
G01 G00
G01 G00 X6.325 Z28.973
G03 X5.989 Z29.389 R.6
G00
G03 Z29.4 R.6
G00
G02 X6. Z30. R33.
G00
G02 X-60. Z63. R33.
G00
G02 X-126. Z30. R33.
G00
G02 X-60. Z-3. R33.
G00
G02 X6. Z30. R33.
G00
G02 X5.989 Z30.6 R33.
G00
G03 Z30.611 R.6
G00
G03 X6.325 Z31.027 R.6
G00
G01 X10.656 Z33.273
G00
Z26.727
G01 G00
G01 G00 X6.325 Z28.973
G03 X5.989 Z29.389 R.6
G00
G03 Z29.4 R.6
G00
G02 X6. Z30. R33.
G00
G02 X-60. Z63. R33.
G00
G02 X-126. Z30. R33.
G00
G02 X-60. Z-3. R33.
G00
G02 X6. Z30. R33.
G00
G02 X5.989 Z30.6 R33.
G00
G03 Z30.611 R.6
G00
G03 X6.325 Z31.027 R.6
G00
G01 X10.656 Z33.273
G00
Z26.727
G01 G00
G01 G00 X6.325 Z28.973
G03 X5.989 Z29.389 R.6
G00
G03 Z29.4 R.6
G00
G02 X6. Z30. R33.
G00
G02 X-60. Z63. R33.
G00
G02 X-126. Z30. R33.
G00
G02 X-60. Z-3. R33.
G00
G02 X6. Z30. R33.
G00
G02 X5.989 Z30.6 R33.
G00
G03 Z30.611 R.6
G00
G03 X6.325 Z31.027 R.6
G00
G01 X10.656 Z33.273
G00
Z26.727
G01 G00
G01 G00 X6.325 Z28.973
G03 X5.989 Z29.389 R.6
G00
G03 Z29.4 R.6
G00
G02 X6. Z30. R33.
G00
G02 X-5.062 Z48.288 R33.
G00
G01 G00
G02 X-23.424 Z57.469 R33.
G00
G01 G00
G02 X-60. Z63. R33.
G00
G02 X-96.576 Z57.469 R33.
G00
G01 G00
G02 X-114.938 Z48.288 R33.
G00
G01 G00
G02 X-126. Z30. R33.
G00
G02 X-114.938 Z11.712 R33.
G00
G01 G00
G02 X-96.576 Z2.531 R33.
G00
G01 G00
G02 X-60. Z-3. R33.
G00
G02 X-23.424 Z2.531 R33.
G00
G01 G00
G02 X-5.062 Z11.712 R33.
G00
G01 G00
G02 X6. Z30. R33.
G00
G02 X5.989 Z30.6 R33.
G00
G03 Z30.611 R.6
G00
G03 X6.325 Z31.027 R.6
G00
G01 X10.656 Z33.273
G00
M09
G30
M30
